apps/48/gmail.svg

<?xml version="1.0" encoding="UTF-8" standalone="no"?>
<!-- Created with Inkscape (http://www.inkscape.org/) -->

<svg
   xmlns:dc="http://purl.org/dc/elements/1.1/"
   xmlns:cc="http://creativecommons.org/ns#"
   xmlns:rdf="http://www.w3.org/1999/02/22-rdf-syntax-ns#"
   xmlns:svg="http://www.w3.org/2000/svg"
   xmlns="http://www.w3.org/2000/svg"
   xmlns:xlink="http://www.w3.org/1999/xlink"
   xmlns:inkscape="http://www.inkscape.org/namespaces/inkscape"
   version="1.1"
   width="48"
   height="48"
   id="svg2429">
  <defs
     id="defs2431">
    <linearGradient
       id="linearGradient5060-6">
      <stop
         id="stop5062-3"
         style="stop-color:#000000;stop-opacity:1"
         offset="0" />
      <stop
         id="stop5064-1"
         style="stop-color:#000000;stop-opacity:0"
         offset="1" />
    </linearGradient>
    <linearGradient
       id="linearGradient5048-7">
      <stop
         id="stop5050-5"
         style="stop-color:#000000;stop-opacity:0"
         offset="0" />
      <stop
         id="stop5056-9"
         style="stop-color:#000000;stop-opacity:1"
         offset="0.5" />
      <stop
         id="stop5052-6"
         style="stop-color:#000000;stop-opacity:0"
         offset="1" />
    </linearGradient>
    <linearGradient
       id="linearGradient3242">
      <stop
         id="stop3244"
         style="stop-color:#f89b7e;stop-opacity:1"
         offset="0" />
      <stop
         id="stop3246"
         style="stop-color:#e35d4f;stop-opacity:1"
         offset="0.11961333" />
      <stop
         id="stop3248"
         style="stop-color:#c6262e;stop-opacity:1"
         offset="0.81107038" />
      <stop
         id="stop3250"
         style="stop-color:#690b2c;stop-opacity:1"
         offset="1" />
    </linearGradient>
    <linearGradient
       id="linearGradient3485">
      <stop
         id="stop3487"
         style="stop-color:#ffffff;stop-opacity:1"
         offset="0" />
      <stop
         id="stop2430"
         style="stop-color:#dddddd;stop-opacity:1"
         offset="0.87898636" />
      <stop
         id="stop3489"
         style="stop-color:#bcbcbc;stop-opacity:1"
         offset="1" />
    </linearGradient>
    <linearGradient
       id="linearGradient3333">
      <stop
         id="stop3335"
         style="stop-color:#ffffff;stop-opacity:1"
         offset="0" />
      <stop
         id="stop3337"
         style="stop-color:#ffffff;stop-opacity:0"
         offset="1" />
    </linearGradient>
    <linearGradient
       id="linearGradient2490">
      <stop
         id="stop2492"
         style="stop-color:#791235;stop-opacity:1"
         offset="0" />
      <stop
         id="stop2494"
         style="stop-color:#dd3b27;stop-opacity:1"
         offset="1" />
    </linearGradient>
    <linearGradient
       id="linearGradient8265-821-176-38-919-66-249-7-7">
      <stop
         id="stop2687-1-9"
         style="stop-color:#ffffff;stop-opacity:1"
         offset="0" />
      <stop
         id="stop2689-5-4"
         style="stop-color:#ffffff;stop-opacity:0"
         offset="1" />
    </linearGradient>
    <filter
       color-interpolation-filters="sRGB"
       id="filter3507">
      <feGaussianBlur
         stdDeviation="0.45938818"
         id="feGaussianBlur3509" />
    </filter>
    <linearGradient
       id="linearGradient3495">
      <stop
         id="stop3497"
         style="stop-color:#000000;stop-opacity:1"
         offset="0" />
      <stop
         id="stop3499"
         style="stop-color:#000000;stop-opacity:0"
         offset="1" />
    </linearGradient>
    <linearGradient
       x1="302.85715"
       y1="366.64789"
       x2="302.85715"
       y2="609.50507"
       id="linearGradient2501"
       xlink:href="#linearGradient5048-7"
       gradientUnits="userSpaceOnUse"
       gradientTransform="matrix(0.06553443,0,0,0.02470588,-69.188394,10.577352)" />
    <radialGradient
       cx="605.71429"
       cy="486.64789"
       r="117.14286"
       fx="605.71429"
       fy="486.64789"
       id="radialGradient2504"
       xlink:href="#linearGradient5060-6"
       gradientUnits="userSpaceOnUse"
       gradientTransform="matrix(0.06553443,0,0,0.02470588,-69.175497,10.577352)" />
    <radialGradient
       cx="605.71429"
       cy="486.64789"
       r="117.14286"
       fx="605.71429"
       fy="486.64789"
       id="radialGradient2506"
       xlink:href="#linearGradient5060-6"
       gradientUnits="userSpaceOnUse"
       gradientTransform="matrix(-0.06553443,0,0,0.02470588,-21.829255,10.577352)" />
    <linearGradient
       x1="16.626165"
       y1="15.298182"
       x2="20.054544"
       y2="24.627615"
       id="linearGradient2527"
       xlink:href="#linearGradient8265-821-176-38-919-66-249-7-7"
       gradientUnits="userSpaceOnUse"
       gradientTransform="matrix(0.9986003,0,0,1.0843613,-0.01298513,4.8058985)" />
    <linearGradient
       x1="24.061939"
       y1="44.571079"
       x2="24.061939"
       y2="13.646055"
       id="linearGradient2530"
       xlink:href="#linearGradient2490"
       gradientUnits="userSpaceOnUse"
       gradientTransform="matrix(0.9980111,0,0,1.0672078,0.04786684,-3.0249034)" />
    <linearGradient
       x1="25.57654"
       y1="15.000002"
       x2="25.57654"
       y2="44.00053"
       id="linearGradient2533"
       xlink:href="#linearGradient3333"
       gradientUnits="userSpaceOnUse"
       gradientTransform="matrix(0.9999999,0,0,1.1071427,7.4171649e-7,-4.6607244)" />
    <linearGradient
       x1="24"
       y1="20.721279"
       x2="24"
       y2="42.76247"
       id="linearGradient2536"
       xlink:href="#linearGradient3485"
       gradientUnits="userSpaceOnUse"
       gradientTransform="matrix(1.00005,0,0,1.068145,-0.00106225,-3.0024711)" />
    <linearGradient
       x1="34.842384"
       y1="44.907166"
       x2="34.842384"
       y2="13.842206"
       id="linearGradient2538"
       xlink:href="#linearGradient2490"
       gradientUnits="userSpaceOnUse"
       gradientTransform="matrix(1.00005,0,0,1.068145,-0.00106225,-3.0024711)" />
    <linearGradient
       x1="28.103424"
       y1="45.000065"
       x2="28.103424"
       y2="14.038458"
       id="linearGradient2543"
       xlink:href="#linearGradient2490"
       gradientUnits="userSpaceOnUse"
       gradientTransform="matrix(0.9999999,0,0,1.1014118,-2.709852e-7,-4.5128102)" />
    <linearGradient
       x1="23.903786"
       y1="35.75"
       x2="23.903786"
       y2="20.443331"
       id="linearGradient2549"
       xlink:href="#linearGradient3495"
       gradientUnits="userSpaceOnUse"
       gradientTransform="translate(0,1.1)" />
    <linearGradient
       x1="20.052792"
       y1="8.163353"
       x2="20.052792"
       y2="48.072277"
       id="linearGradient3203"
       xlink:href="#linearGradient3242"
       gradientUnits="userSpaceOnUse" />
  </defs>
  <metadata
     id="metadata2434">
    <rdf:RDF>
      <cc:Work
         rdf:about="">
        <dc:format>image/svg+xml</dc:format>
        <dc:type
           rdf:resource="http://purl.org/dc/dcmitype/StillImage" />
      </cc:Work>
    </rdf:RDF>
  </metadata>
  <g
     id="layer1">
    <g
       transform="matrix(1.0008068,0,0,1.0008068,69.539093,21.343603)"
       id="g3511"
       style="stroke-width:1.03041875;stroke-miterlimit:4;stroke-dasharray:none">
      <rect
         width="31.643764"
         height="6.0000005"
         x="-61.324265"
         y="19.635714"
         id="rect2512"
         style="opacity:0.40206185;fill:url(#linearGradient2501);fill-opacity:1;fill-rule:nonzero;stroke:none;stroke-width:1.03041875;marker:none;visibility:visible;display:inline;overflow:visible" />
      <path
         d="m -29.680498,19.635919 c 0,0 0,5.999669 0,5.999669 3.374861,0.01129 8.158771,-1.344221 8.158769,-3.000221 0,-1.655999 -3.76609,-2.999448 -8.158769,-2.999448 z"
         inkscape:connector-curvature="0"
         id="path2514"
         style="opacity:0.40206185;fill:url(#radialGradient2504);fill-opacity:1;fill-rule:nonzero;stroke:none;stroke-width:1.03041875;marker:none;visibility:visible;display:inline;overflow:visible" />
      <path
         d="m -61.324263,19.635919 c 0,0 0,5.999669 0,5.999669 -3.374861,0.01129 -8.158771,-1.344221 -8.158771,-3.000221 0,-1.655999 3.766091,-2.999448 8.158771,-2.999448 z"
         inkscape:connector-curvature="0"
         id="path2516"
         style="opacity:0.40206185;fill:url(#radialGradient2506);fill-opacity:1;fill-rule:nonzero;stroke:none;stroke-width:1.03041875;marker:none;visibility:visible;display:inline;overflow:visible" />
    </g>
    <rect
       width="45"
       height="33"
       rx="0.99999994"
       ry="1"
       x="1.5"
       y="11.500003"
       id="rect2396"
       style="fill:url(#linearGradient3203);fill-opacity:1;fill-rule:evenodd;stroke:url(#linearGradient2543);stroke-width:1;stroke-linecap:square;stroke-linejoin:round;stroke-miterlimit:4;stroke-opacity:1;stroke-dasharray:none;stroke-dashoffset:0;marker:none;visibility:visible;display:inline;overflow:visible;enable-background:accumulate" />
    <path
       d="m 11.999536,12.5 24.0012,0 -12.000599,12 -12.000601,-12 z M 7.5,17.5 l 0,26 33,0 0,-26 -16.499863,15 L 7.5,17.5 z"
       inkscape:connector-curvature="0"
       id="path3307"
       style="fill:url(#linearGradient2536);fill-opacity:1;fill-rule:evenodd;stroke:url(#linearGradient2538);stroke-width:1;stroke-linecap:butt;stroke-linejoin:miter;stroke-miterlimit:4;stroke-opacity:1;stroke-dasharray:none" />
    <rect
       width="43.000004"
       height="30.999998"
       rx="0.082551509"
       ry="0.083472483"
       x="2.5000002"
       y="12.5"
       id="rect3331"
       style="opacity:0.4;fill:none;stroke:url(#linearGradient2533);stroke-width:1;stroke-linecap:square;stroke-linejoin:miter;stroke-miterlimit:4;stroke-opacity:1;stroke-dasharray:none;stroke-dashoffset:0;marker:none;visibility:visible;display:inline;overflow:visible;enable-background:accumulate" />
    <path
       d="M 18.650597,30.48617 7.79881,41.244776 M 29.362739,30.5523 40.325089,41.244776"
       inkscape:connector-curvature="0"
       id="path3341"
       style="fill:none;stroke:url(#linearGradient2530);stroke-width:1;stroke-linecap:butt;stroke-linejoin:miter;stroke-miterlimit:4;stroke-opacity:1;stroke-dasharray:none;stroke-dashoffset:0;marker:none;visibility:visible;display:inline;overflow:visible;enable-background:accumulate" />
    <path
       d="m 2.4745419,11 c -0.8221285,0 -1.4730211,0.760388 -1.4730211,1.5 l 0.0153,18.5 C 2.3400497,30.979857 45.994386,23.627577 46.998751,23.273924 l 0,-10.773924 c 0,-0.565337 -0.642963,-1.5 -1.354833,-1.5 L 2.4745419,11 z"
       inkscape:connector-curvature="0"
       id="path3333"
       style="opacity:0.2;fill:url(#linearGradient2527);fill-opacity:1;fill-rule:evenodd;stroke:none" />
    <path
       d="M 8.3351296,22.511926 24,35.630271 39.472443,22.511926"
       inkscape:connector-curvature="0"
       transform="matrix(0.9980111,0,0,1.0672078,0.04786683,-3.0249033)"
       id="path3493"
       style="opacity:0.4;fill:none;stroke:url(#linearGradient2549);stroke-width:0.9689644;stroke-linecap:butt;stroke-linejoin:miter;stroke-miterlimit:4;stroke-opacity:1;stroke-dasharray:none;filter:url(#filter3507)" />
  </g>
</svg>

<?xml version="1.0" encoding="UTF-8" standalone="no"?>
<!-- Created with Inkscape (http://www.inkscape.org/) -->
<svg
   xmlns:dc="http://purl.org/dc/elements/1.1/"
   xmlns:cc="http://creativecommons.org/ns#"
   xmlns:rdf="http://www.w3.org/1999/02/22-rdf-syntax-ns#"
   xmlns:svg="http://www.w3.org/2000/svg"
   xmlns="http://www.w3.org/2000/svg"
   xmlns:xlink="http://www.w3.org/1999/xlink"
   xmlns:sodipodi="http://sodipodi.sourceforge.net/DTD/sodipodi-0.dtd"
   xmlns:inkscape="http://www.inkscape.org/namespaces/inkscape"
   width="48px"
   height="48px"
   id="svg2429"
   sodipodi:version="0.32"
   inkscape:version="0.46"
   sodipodi:docname="gmail.svg"
   inkscape:output_extension="org.inkscape.output.svg.inkscape">
  <defs
     id="defs2431">
    <linearGradient
       id="linearGradient5060-6">
      <stop
         id="stop5062-3"
         style="stop-color:#000000;stop-opacity:1"
         offset="0" />
      <stop
         id="stop5064-1"
         style="stop-color:#000000;stop-opacity:0"
         offset="1" />
    </linearGradient>
    <linearGradient
       id="linearGradient5048-7">
      <stop
         id="stop5050-5"
         style="stop-color:#000000;stop-opacity:0"
         offset="0" />
      <stop
         id="stop5056-9"
         style="stop-color:#000000;stop-opacity:1"
         offset="0.5" />
      <stop
         id="stop5052-6"
         style="stop-color:#000000;stop-opacity:0"
         offset="1" />
    </linearGradient>
    <linearGradient
       id="linearGradient3242">
      <stop
         id="stop3244"
         style="stop-color:#f89b7e;stop-opacity:1"
         offset="0" />
      <stop
         id="stop3246"
         style="stop-color:#e35d4f;stop-opacity:1"
         offset="0.11961333" />
      <stop
         id="stop3248"
         style="stop-color:#c6262e;stop-opacity:1"
         offset="0.81107038" />
      <stop
         id="stop3250"
         style="stop-color:#690b2c;stop-opacity:1"
         offset="1" />
    </linearGradient>
    <linearGradient
       id="linearGradient3485">
      <stop
         id="stop3487"
         style="stop-color:#ffffff;stop-opacity:1"
         offset="0" />
      <stop
         offset="0.87898636"
         style="stop-color:#dddddd;stop-opacity:1;"
         id="stop2430" />
      <stop
         id="stop3489"
         style="stop-color:#bcbcbc;stop-opacity:1;"
         offset="1" />
    </linearGradient>
    <linearGradient
       id="linearGradient3333">
      <stop
         id="stop3335"
         style="stop-color:#ffffff;stop-opacity:1"
         offset="0" />
      <stop
         id="stop3337"
         style="stop-color:#ffffff;stop-opacity:0"
         offset="1" />
    </linearGradient>
    <linearGradient
       id="linearGradient2490">
      <stop
         id="stop2492"
         style="stop-color:#791235;stop-opacity:1"
         offset="0" />
      <stop
         id="stop2494"
         style="stop-color:#dd3b27;stop-opacity:1"
         offset="1" />
    </linearGradient>
    <linearGradient
       id="linearGradient8265-821-176-38-919-66-249-7-7">
      <stop
         id="stop2687-1-9"
         style="stop-color:#ffffff;stop-opacity:1"
         offset="0" />
      <stop
         id="stop2689-5-4"
         style="stop-color:#ffffff;stop-opacity:0"
         offset="1" />
    </linearGradient>
    <filter
       id="filter3507">
      <feGaussianBlur
         id="feGaussianBlur3509"
         stdDeviation="0.45938818"
         inkscape:collect="always" />
    </filter>
    <linearGradient
       id="linearGradient3495">
      <stop
         id="stop3497"
         style="stop-color:#000000;stop-opacity:1"
         offset="0" />
      <stop
         id="stop3499"
         style="stop-color:#000000;stop-opacity:0"
         offset="1" />
    </linearGradient>
    <linearGradient
       inkscape:collect="always"
       xlink:href="#linearGradient5048-7"
       id="linearGradient2501"
       gradientUnits="userSpaceOnUse"
       gradientTransform="matrix(6.553443e-2,0,0,2.470588e-2,-69.188394,10.577352)"
       x1="302.85715"
       y1="366.64789"
       x2="302.85715"
       y2="609.50507" />
    <radialGradient
       inkscape:collect="always"
       xlink:href="#linearGradient5060-6"
       id="radialGradient2504"
       gradientUnits="userSpaceOnUse"
       gradientTransform="matrix(6.553443e-2,0,0,2.470588e-2,-69.175497,10.577352)"
       cx="605.71429"
       cy="486.64789"
       fx="605.71429"
       fy="486.64789"
       r="117.14286" />
    <radialGradient
       inkscape:collect="always"
       xlink:href="#linearGradient5060-6"
       id="radialGradient2506"
       gradientUnits="userSpaceOnUse"
       gradientTransform="matrix(-6.553443e-2,0,0,2.470588e-2,-21.829255,10.577352)"
       cx="605.71429"
       cy="486.64789"
       fx="605.71429"
       fy="486.64789"
       r="117.14286" />
    <linearGradient
       inkscape:collect="always"
       xlink:href="#linearGradient8265-821-176-38-919-66-249-7-7"
       id="linearGradient2527"
       gradientUnits="userSpaceOnUse"
       gradientTransform="matrix(0.9986003,0,0,1.0843613,-1.298513e-2,4.8058985)"
       x1="16.626165"
       y1="15.298182"
       x2="20.054544"
       y2="24.627615" />
    <linearGradient
       inkscape:collect="always"
       xlink:href="#linearGradient2490"
       id="linearGradient2530"
       gradientUnits="userSpaceOnUse"
       gradientTransform="matrix(0.9980111,0,0,1.0672078,4.7866835e-2,-3.0249034)"
       x1="24.061939"
       y1="44.571079"
       x2="24.061939"
       y2="13.646055" />
    <linearGradient
       inkscape:collect="always"
       xlink:href="#linearGradient3333"
       id="linearGradient2533"
       gradientUnits="userSpaceOnUse"
       gradientTransform="matrix(0.9999999,0,0,1.1071427,7.4171649e-7,-4.6607244)"
       x1="25.57654"
       y1="15.000002"
       x2="25.57654"
       y2="44.00053" />
    <linearGradient
       inkscape:collect="always"
       xlink:href="#linearGradient3485"
       id="linearGradient2536"
       gradientUnits="userSpaceOnUse"
       gradientTransform="matrix(1.00005,0,0,1.068145,-1.0622497e-3,-3.0024711)"
       x1="24"
       y1="20.721279"
       x2="24"
       y2="42.76247" />
    <linearGradient
       inkscape:collect="always"
       xlink:href="#linearGradient2490"
       id="linearGradient2538"
       gradientUnits="userSpaceOnUse"
       gradientTransform="matrix(1.00005,0,0,1.068145,-1.0622497e-3,-3.0024711)"
       x1="34.842384"
       y1="44.907166"
       x2="34.842384"
       y2="13.842206" />
    <linearGradient
       inkscape:collect="always"
       xlink:href="#linearGradient2490"
       id="linearGradient2543"
       gradientUnits="userSpaceOnUse"
       gradientTransform="matrix(0.9999999,0,0,1.1014118,-2.709852e-7,-4.5128102)"
       x1="28.103424"
       y1="45.000065"
       x2="28.103424"
       y2="14.038458" />
    <linearGradient
       inkscape:collect="always"
       xlink:href="#linearGradient3495"
       id="linearGradient2549"
       gradientUnits="userSpaceOnUse"
       gradientTransform="translate(0,1.1)"
       x1="23.903786"
       y1="35.75"
       x2="23.903786"
       y2="20.443331" />
    <linearGradient
       inkscape:collect="always"
       xlink:href="#linearGradient3242"
       id="linearGradient3203"
       x1="20.052792"
       y1="8.163353"
       x2="20.052792"
       y2="48.072277"
       gradientUnits="userSpaceOnUse" />
  </defs>
  <sodipodi:namedview
     id="base"
     pagecolor="#ffffff"
     bordercolor="#666666"
     borderopacity="1.0"
     inkscape:pageopacity="0.0"
     inkscape:pageshadow="2"
     inkscape:zoom="11.284435"
     inkscape:cx="41.751995"
     inkscape:cy="20.124626"
     inkscape:current-layer="layer1"
     showgrid="true"
     inkscape:grid-bbox="true"
     inkscape:document-units="px"
     inkscape:window-width="1440"
     inkscape:window-height="789"
     inkscape:window-x="0"
     inkscape:window-y="24"
     showguides="true"
     inkscape:guide-bbox="true">
    <sodipodi:guide
       orientation="0,1"
       position="34.029173,8.0642051"
       id="guide2431" />
  </sodipodi:namedview>
  <metadata
     id="metadata2434">
    <rdf:RDF>
      <cc:Work
         rdf:about="">
        <dc:format>image/svg+xml</dc:format>
        <dc:type
           rdf:resource="http://purl.org/dc/dcmitype/StillImage" />
      </cc:Work>
    </rdf:RDF>
  </metadata>
  <g
     id="layer1"
     inkscape:label="Layer 1"
     inkscape:groupmode="layer">
    <g
       id="g3511"
       transform="matrix(1.0008068,0,0,1.0008068,69.539093,21.343603)"
       style="stroke-width:1.03041875;stroke-miterlimit:4;stroke-dasharray:none">
      <rect
         style="opacity:0.40206185;fill:url(#linearGradient2501);fill-opacity:1;fill-rule:nonzero;stroke:none;stroke-width:1.03041875;marker:none;stroke-miterlimit:4;stroke-dasharray:none;visibility:visible;display:inline;overflow:visible"
         id="rect2512"
         y="19.635714"
         x="-61.324265"
         height="6.0000005"
         width="31.643764" />
      <path
         style="opacity:0.40206185;fill:url(#radialGradient2504);fill-opacity:1;fill-rule:nonzero;stroke:none;stroke-width:1.03041875;marker:none;stroke-miterlimit:4;stroke-dasharray:none;visibility:visible;display:inline;overflow:visible"
         id="path2514"
         d="M -29.680498,19.635919 C -29.680498,19.635919 -29.680498,25.635588 -29.680498,25.635588 C -26.305637,25.646878 -21.521727,24.291367 -21.521729,22.635367 C -21.521729,20.979368 -25.287819,19.635919 -29.680498,19.635919 z" />
      <path
         style="opacity:0.40206185;fill:url(#radialGradient2506);fill-opacity:1;fill-rule:nonzero;stroke:none;stroke-width:1.03041875;marker:none;stroke-miterlimit:4;stroke-dasharray:none;visibility:visible;display:inline;overflow:visible"
         id="path2516"
         d="M -61.324263,19.635919 C -61.324263,19.635919 -61.324263,25.635588 -61.324263,25.635588 C -64.699124,25.646878 -69.483034,24.291367 -69.483034,22.635367 C -69.483034,20.979368 -65.716943,19.635919 -61.324263,19.635919 z" />
    </g>
    <rect
       style="fill:url(#linearGradient3203);fill-opacity:1;fill-rule:evenodd;stroke:url(#linearGradient2543);stroke-width:1;stroke-linecap:square;stroke-linejoin:round;marker:none;marker-start:none;marker-mid:none;marker-end:none;stroke-miterlimit:4;stroke-dasharray:none;stroke-dashoffset:0;stroke-opacity:1;visibility:visible;display:inline;overflow:visible;enable-background:accumulate"
       id="rect2396"
       y="11.500003"
       x="1.5"
       height="33"
       width="45"
       rx="0.99999994"
       ry="1" />
    <path
       style="fill:url(#linearGradient2536);fill-opacity:1;fill-rule:evenodd;stroke:url(#linearGradient2538);stroke-width:1;stroke-linecap:butt;stroke-linejoin:miter;stroke-miterlimit:4;stroke-dasharray:none;stroke-opacity:1"
       id="path3307"
       d="M 11.999536,12.5 L 36.000736,12.5 L 24.000137,24.5 L 11.999536,12.5 z M 7.5,17.5 L 7.5,43.5 L 40.5,43.5 L 40.5,17.5 L 24.000137,32.5 L 7.5,17.5 z"
       sodipodi:nodetypes="cccccccccc" />
    <rect
       style="opacity:0.4;fill:none;fill-opacity:1;fill-rule:evenodd;stroke:url(#linearGradient2533);stroke-width:1;stroke-linecap:square;stroke-linejoin:miter;marker:none;marker-start:none;marker-mid:none;marker-end:none;stroke-miterlimit:4;stroke-dasharray:none;stroke-dashoffset:0;stroke-opacity:1;visibility:visible;display:inline;overflow:visible;enable-background:accumulate"
       id="rect3331"
       y="12.5"
       x="2.5000002"
       height="30.999998"
       width="43.000004"
       rx="0.082551509"
       ry="0.083472483" />
    <path
       style="fill:none;fill-opacity:1;fill-rule:evenodd;stroke:url(#linearGradient2530);stroke-width:1;stroke-linecap:butt;stroke-linejoin:miter;marker:none;marker-start:none;marker-mid:none;marker-end:none;stroke-miterlimit:4;stroke-dasharray:none;stroke-dashoffset:0;stroke-opacity:1;visibility:visible;display:inline;overflow:visible;enable-background:accumulate"
       id="path3341"
       d="M 18.650597,30.48617 L 7.79881,41.244776 M 29.362739,30.5523 L 40.325089,41.244776" />
    <path
       style="opacity:0.2;fill:url(#linearGradient2527);fill-opacity:1;fill-rule:evenodd;stroke:none;stroke-width:1;stroke-miterlimit:4;stroke-dasharray:none"
       id="path3333"
       d="M 2.4745419,11 C 1.6524134,11 1.0015208,11.760388 1.0015208,12.5 L 1.0168213,31 C 2.3400497,30.979857 45.994386,23.627577 46.998751,23.273924 L 46.998751,12.5 C 46.998751,11.934663 46.355788,11 45.643918,11 L 2.4745419,11 z"
       sodipodi:nodetypes="ccccccc" />
    <path
       style="opacity:0.4;fill:none;fill-rule:evenodd;stroke:url(#linearGradient2549);stroke-width:0.9689644;stroke-linecap:butt;stroke-linejoin:miter;stroke-miterlimit:4;stroke-dasharray:none;stroke-opacity:1;filter:url(#filter3507)"
       id="path3493"
       d="M 8.3351296,22.511926 L 24,35.630271 L 39.472443,22.511926"
       transform="matrix(0.9980111,0,0,1.0672078,4.7866833e-2,-3.0249033)"
       sodipodi:nodetypes="ccc" />
  </g>
</svg>
